images/advantages-icon-1.svg

<svg width="30" height="31" viewBox="0 0 30 31" fill="none" xmlns="http://www.w3.org/2000/svg">
<path d="M15.0003 24.9138C20.155 24.9138 24.3337 20.7351 24.3337 15.5804C24.3337 10.4258 20.155 6.24707 15.0003 6.24707C9.84569 6.24707 5.66699 10.4258 5.66699 15.5804C5.66699 20.7351 9.84569 24.9138 15.0003 24.9138Z" fill="white"/>
<path d="M14.9996 30.1931C14.2663 30.1931 13.6663 29.6464 13.6663 28.9131V28.8064C13.6663 28.0731 14.2663 27.4731 14.9996 27.4731C15.733 27.4731 16.333 28.0731 16.333 28.8064C16.333 29.5397 15.733 30.1931 14.9996 30.1931ZM24.5196 26.4331C24.173 26.4331 23.8396 26.2997 23.573 26.0464L23.3996 25.8731C22.8796 25.3531 22.8796 24.5131 23.3996 23.9931C23.9196 23.4731 24.7596 23.4731 25.2796 23.9931L25.453 24.1664C25.973 24.6864 25.973 25.5264 25.453 26.0464C25.1996 26.2997 24.8663 26.4331 24.5196 26.4331ZM5.47961 26.4331C5.13301 26.4331 4.79961 26.2997 4.53301 26.0464C4.01301 25.5264 4.01301 24.6864 4.53301 24.1664L4.70631 23.9931C5.22631 23.4731 6.06631 23.4731 6.58631 23.9931C7.10631 24.5131 7.10631 25.3531 6.58631 25.8731L6.41301 26.0464C6.15961 26.2997 5.81301 26.4331 5.47961 26.4331ZM28.333 16.9131H28.2263C27.493 16.9131 26.893 16.3131 26.893 15.5797C26.893 14.8464 27.493 14.2464 28.2263 14.2464C28.9596 14.2464 29.613 14.8464 29.613 15.5797C29.613 16.3131 29.0663 16.9131 28.333 16.9131ZM1.77301 16.9131H1.66631C0.933007 16.9131 0.333008 16.3131 0.333008 15.5797C0.333008 14.8464 0.933007 14.2464 1.66631 14.2464C2.39961 14.2464 3.05301 14.8464 3.05301 15.5797C3.05301 16.3131 2.50631 16.9131 1.77301 16.9131ZM24.3463 7.56639C23.9996 7.56639 23.6663 7.43309 23.3996 7.17969C22.8796 6.65969 22.8796 5.81968 23.3996 5.29968L23.573 5.12638C24.093 4.60638 24.933 4.60638 25.453 5.12638C25.973 5.64638 25.973 6.48639 25.453 7.00639L25.2796 7.17969C25.0263 7.43309 24.693 7.56639 24.3463 7.56639ZM5.65301 7.56639C5.30631 7.56639 4.97301 7.43309 4.70631 7.17969L4.53301 6.99309C4.01301 6.47309 4.01301 5.63308 4.53301 5.11308C5.05301 4.59308 5.89301 4.59308 6.41301 5.11308L6.58631 5.28638C7.10631 5.80638 7.10631 6.64639 6.58631 7.16639C6.33301 7.43309 5.98631 7.56639 5.65301 7.56639ZM14.9996 3.63309C14.2663 3.63309 13.6663 3.08638 13.6663 2.35308V2.24639C13.6663 1.51309 14.2663 0.913086 14.9996 0.913086C15.733 0.913086 16.333 1.51309 16.333 2.24639C16.333 2.97969 15.733 3.63309 14.9996 3.63309Z" fill="white"/>
</svg>

<svg width="30" height="31" fill="none" xmlns="http://www.w3.org/2000/svg"><path d="M15 24.914a9.333 9.333 0 100-18.667 9.333 9.333 0 000 18.667zm0 5.279c-.734 0-1.334-.547-1.334-1.28v-.107c0-.733.6-1.333 1.334-1.333.733 0 1.333.6 1.333 1.333 0 .734-.6 1.387-1.333 1.387zm9.52-3.76c-.347 0-.68-.133-.947-.387l-.173-.173c-.52-.52-.52-1.36 0-1.88.52-.52 1.36-.52 1.88 0l.173.173a1.328 1.328 0 01-.933 2.267zm-19.04 0c-.347 0-.68-.133-.947-.387-.52-.52-.52-1.36 0-1.88l.173-.173c.52-.52 1.36-.52 1.88 0 .52.52.52 1.36 0 1.88l-.173.173c-.253.254-.6.387-.933.387zm22.853-9.52h-.107c-.733 0-1.333-.6-1.333-1.333 0-.734.6-1.334 1.333-1.334.734 0 1.387.6 1.387 1.334 0 .733-.547 1.333-1.28 1.333zm-26.56 0h-.107c-.733 0-1.333-.6-1.333-1.333 0-.734.6-1.334 1.333-1.334.734 0 1.387.6 1.387 1.334 0 .733-.547 1.333-1.28 1.333zm22.573-9.347c-.346 0-.68-.133-.946-.386-.52-.52-.52-1.36 0-1.88l.173-.174c.52-.52 1.36-.52 1.88 0 .52.52.52 1.36 0 1.88l-.173.174a1.311 1.311 0 01-.934.386zm-18.693 0c-.347 0-.68-.133-.947-.386l-.173-.187c-.52-.52-.52-1.36 0-1.88.52-.52 1.36-.52 1.88 0l.173.173c.52.52.52 1.36 0 1.88-.253.267-.6.4-.933.4zM15 3.633c-.734 0-1.334-.547-1.334-1.28v-.107c0-.733.6-1.333 1.334-1.333.733 0 1.333.6 1.333 1.333 0 .734-.6 1.387-1.333 1.387z" fill="#fff"/></svg>
